src/components/ProtocolIcon/aptos.svg

<svg width="16" height="16" viewBox="0 0 16 16" fill="currentColor" xmlns="http://www.w3.org/2000/svg">
<path fill-rule="evenodd" clip-rule="evenodd" d="M10.1652 3.19273C10.2289 3.19269 10.292 3.17984 10.3507 3.15495C10.4094 3.13005 10.4624 3.09362 10.5066 3.04784L11.1867 2.34186C11.2286 2.29786 11.2791 2.2628 11.335 2.2388C11.391 2.2148 11.4513 2.20236 11.5122 2.20224H11.5413C11.6051 2.20206 11.6681 2.21563 11.7261 2.242C11.7842 2.26837 11.8357 2.30693 11.8774 2.35503L12.4516 3.00043C12.5061 3.06059 12.5727 3.10877 12.6469 3.14188C12.7212 3.175 12.8016 3.19231 12.883 3.19273H14.4205C13.6725 2.20131 12.7031 1.39672 11.5888 0.842597C10.4745 0.28847 9.24602 0 8.00043 0C6.75485 0 5.52634 0.28847 4.41207 0.842597C3.29781 1.39672 2.32833 2.20131 1.58032 3.19273H10.1652ZM10.9772 5.35023H12.393H12.4036H15.5792C15.8038 5.98725 15.9453 6.65037 16 7.32329H10.0324C9.9507 7.32338 9.8699 7.30603 9.79549 7.2724C9.72108 7.23877 9.65478 7.18965 9.60106 7.12836L9.02679 6.48296C8.98387 6.43593 8.93159 6.39829 8.87328 6.37245C8.81497 6.3466 8.75189 6.3331 8.68806 6.33281H8.66159C8.60088 6.33274 8.54077 6.34483 8.48485 6.36836C8.42893 6.3919 8.37834 6.42639 8.33609 6.46979L7.65332 7.17841C7.60964 7.22411 7.5571 7.26052 7.49888 7.28542C7.44066 7.31032 7.37796 7.32321 7.31459 7.32329H0C0.0559887 6.65056 0.197371 5.98759 0.420773 5.35023H8.16937C8.28965 5.35001 8.4085 5.32429 8.51801 5.27478C8.62753 5.22527 8.72519 5.15311 8.8045 5.0631L9.29673 4.5099C9.33917 4.46262 9.39117 4.4248 9.44931 4.3989C9.50745 4.37301 9.57044 4.35962 9.63414 4.35962C9.69784 4.35962 9.76082 4.37301 9.81896 4.3989C9.87711 4.4248 9.9291 4.46262 9.97155 4.5099L10.5458 5.1553C10.5997 5.21646 10.666 5.26549 10.7404 5.2991C10.8147 5.33272 10.8955 5.35015 10.9772 5.35023ZM4.60899 11.434C4.55081 11.4589 4.48821 11.4719 4.42488 11.4723L0.767588 11.4775C0.45983 10.845 0.238229 10.1743 0.108643 9.4834H5.31671C5.43718 9.48355 5.55631 9.45827 5.66625 9.40923C5.77618 9.36019 5.87443 9.28851 5.95449 9.1989L6.44672 8.64571C6.48834 8.59761 6.53993 8.55905 6.59795 8.53267C6.65596 8.5063 6.71903 8.49274 6.78281 8.49292C6.84692 8.49305 6.91027 8.50674 6.96867 8.53308C7.02707 8.55942 7.07918 8.59781 7.12154 8.64571L7.69581 9.2911C7.74969 9.35132 7.81572 9.39957 7.88959 9.43271C7.96345 9.46584 8.0435 9.48311 8.12452 9.4834H15.8916C15.7608 10.1726 15.5383 10.8415 15.23 11.4723H7.14007C7.05843 11.4719 6.9778 11.4543 6.90346 11.4207C6.82913 11.3871 6.76276 11.3382 6.70871 11.2773L6.13709 10.6319C6.09417 10.5849 6.04189 10.5473 5.98358 10.5214C5.92526 10.4956 5.86219 10.4821 5.79835 10.4818H5.76924C5.7086 10.4822 5.64862 10.4945 5.59276 10.518C5.5369 10.5415 5.48626 10.5757 5.44374 10.6188L4.76362 11.3274C4.71975 11.3728 4.66718 11.4091 4.60899 11.434ZM4.97018 13.4479H7.07405L13.8726 13.4585C13.1215 14.2604 12.2127 14.8999 11.2027 15.3372C10.1927 15.7744 9.10302 16.0001 8.0016 16.0001C6.90018 16.0001 5.81055 15.7744 4.80052 15.3372C3.79048 14.8999 2.88166 14.2604 2.13062 13.4585H2.16237C2.28268 13.4584 2.40159 13.4328 2.51112 13.3832C2.62066 13.3337 2.7183 13.2615 2.7975 13.1713L3.29237 12.6076C3.33506 12.5603 3.38729 12.5224 3.44565 12.4965C3.50401 12.4705 3.5672 12.4572 3.63111 12.4572C3.69502 12.4572 3.75821 12.4705 3.81657 12.4965C3.87493 12.5224 3.92716 12.5603 3.96985 12.6076L4.54147 13.253C4.59478 13.3141 4.66064 13.3631 4.73459 13.3967C4.80854 13.4303 4.88887 13.4478 4.97018 13.4479Z" fill="currentColor"/>
</svg>

<svg xmlns="http://www.w3.org/2000/svg" width="16" height="16" fill="currentColor"><path fill-rule="evenodd" d="M10.165 3.193a.48.48 0 0 0 .342-.145l.68-.706a.45.45 0 0 1 .325-.14h.03a.44.44 0 0 1 .335.153l.575.645a.59.59 0 0 0 .431.193h1.538a8 8 0 0 0-2.832-2.35 8.06 8.06 0 0 0-7.177 0 8 8 0 0 0-2.832 2.35zm.812 2.157h4.602c.225.637.366 1.3.421 1.973h-5.968a.57.57 0 0 1-.43-.195l-.575-.645a.46.46 0 0 0-.339-.15h-.026a.45.45 0 0 0-.326.137l-.683.708a.47.47 0 0 1-.338.145H0A8 8 0 0 1 .42 5.35h7.75a.85.85 0 0 0 .635-.287l.492-.553a.452.452 0 0 1 .675 0l.574.645a.57.57 0 0 0 .431.195M4.61 11.434a.5.5 0 0 1-.184.038l-3.657.005a7.9 7.9 0 0 1-.66-1.994h5.209a.86.86 0 0 0 .637-.284l.493-.553a.44.44 0 0 1 .522-.113q.088.04.153.113l.574.645a.58.58 0 0 0 .429.192h7.767a7.9 7.9 0 0 1-.662 1.99H7.14a.58.58 0 0 1-.431-.196l-.572-.645a.46.46 0 0 0-.339-.15H5.77a.46.46 0 0 0-.325.137l-.68.708a.5.5 0 0 1-.155.107m.361 2.014h2.104l6.799.01a8 8 0 0 1-2.67 1.88 8.06 8.06 0 0 1-9.072-1.88h.031a.85.85 0 0 0 .636-.287l.494-.563a.455.455 0 0 1 .678 0l.571.645a.57.57 0 0 0 .43.195" clip-rule="evenodd"/></svg>
